outputs/icons/hardware/tablet_mac_round.svg

<svg width="1200" height="1200" viewBox="0 0 1200 1200" fill="none" xmlns="http://www.w3.org/2000/svg"><g clip-path="url(#clip0_238_1270)"><path d="M925 0H225C156 0 100 56 100 125V1075C100 1144 156 1200 225 1200H925C994 1200 1050 1144 1050 1075V125C1050 56 994 0 925 0ZM575 1150C533.5 1150 500 1116.5 500 1075C500 1033.5 533.5 1000 575 1000C616.5 1000 650 1033.5 650 1075C650 1116.5 616.5 1150 575 1150ZM950 950H200V150H950V950Z" fill="black"/></g><defs><clipPath id="clip0_238_1270"><path width="24" fill="white" d="M0 0H1200V1200H0V0z"/></clipPath></defs></svg>

<svg xmlns="http://www.w3.org/2000/svg" width="1200" height="1200" fill="none"><g clip-path="url(#a)"><path fill="#000" d="M925 0H225c-69 0-125 56-125 125v950c0 69 56 125 125 125h700c69 0 125-56 125-125V125c0-69-56-125-125-125M575 1150c-41.5 0-75-33.5-75-75s33.5-75 75-75 75 33.5 75 75-33.5 75-75 75m375-200H200V150h750z"/></g><defs><clipPath id="a"><path fill="#fff" d="M0 0h1200v1200H0z"/></clipPath></defs></svg>
